includes/img/call.svg

<svg width="32" height="32" viewBox="0 0 24 24" xmlns="http://www.w3.org/2000/svg"><path fill="#fff" opacity=".82" d="M5 0h14.01c-.01 8 0 16 0 24H5V0m1.71 2c0 4.38-.01 8.77.01 13.15 3.5.02 7 .15 10.48-.07.55-4.32.02-8.69.31-13.04-3.6-.04-7.2-.01-10.8-.04m.02 15.9c1.25.87 2 .66 2.24-.66-1.26-.82-2.01-.6-2.24.66m4.5-.75c.14 3.24 3.14-1.46 0 0m3.86.13c.32 1.29 1.09 1.48 2.32.58-.32-1.24-1.1-1.44-2.32-.58M6.59 20c.91 1.34 1.82 1.34 2.73-.01-.92-1.34-1.83-1.34-2.73.01m4.01 0c.92 1.34 1.82 1.34 2.73 0-.92-1.35-1.82-1.35-2.73 0m-3.83 2.18c.2 1.35.91 1.58 2.14.69-.2-1.33-.91-1.56-2.14-.69m4.46-.1c.17 3.3 3.09-1.52 0 0m3.93.08c.22 1.36.94 1.59 2.18.71-.22-1.31-.95-1.54-2.18-.71z"/></svg>

<?xml version="1.0" encoding="UTF-8" ?>
<!DOCTYPE svg PUBLIC "-//W3C//DTD SVG 1.1//EN" "http://www.w3.org/Graphics/SVG/1.1/DTD/svg11.dtd">
<svg width="24pt" height="24pt" viewBox="0 0 24 24" version="1.1" xmlns="http://www.w3.org/2000/svg">
<g id="#cdcdcdd0">
<path fill="#ffffff" opacity="0.82" d=" M 5.00 0.00 L 19.01 0.00 C 19.00 8.00 19.01 16.00 19.01 24.00 L 5.00 24.00 C 5.00 16.00 5.00 8.00 5.00 0.00 M 6.71 2.00 C 6.71 6.38 6.70 10.77 6.72 15.15 C 10.22 15.17 13.72 15.30 17.20 15.08 C 17.75 10.76 17.22 6.39 17.51 2.04 C 13.91 2.00 10.31 2.03 6.71 2.00 M 6.73 17.90 C 7.98 18.77 8.73 18.56 8.97 17.24 C 7.71 16.42 6.96 16.64 6.73 17.90 M 11.23 17.15 C 11.37 20.39 14.37 15.69 11.23 17.15 M 15.09 17.28 C 15.41 18.57 16.18 18.76 17.41 17.86 C 17.09 16.62 16.31 16.42 15.09 17.28 M 6.59 20.00 C 7.50 21.34 8.41 21.34 9.32 19.99 C 8.40 18.65 7.49 18.65 6.59 20.00 M 10.60 20.00 C 11.52 21.34 12.42 21.34 13.33 20.00 C 12.41 18.65 11.51 18.65 10.60 20.00 M 6.77 22.18 C 6.97 23.53 7.68 23.76 8.91 22.87 C 8.71 21.54 8.00 21.31 6.77 22.18 M 11.23 22.08 C 11.40 25.38 14.32 20.56 11.23 22.08 M 15.16 22.16 C 15.38 23.52 16.10 23.75 17.34 22.87 C 17.12 21.56 16.39 21.33 15.16 22.16 Z" />
</g>
</svg>
